X: 29084
T: Neilly O'Boyle's
R: reel
M: 4/4
K: Gmixolydian
GABG cABA|GABc dBg2|G2BG cGBG|AGAB cdBA|
GGGB cdBA|GABc dBg2|gb(3agf gedB|cBAB c3c|
BcdB gBdg|Bcdf g3d|BcdB gBdB|cBAB c3d|
BcdB gBdg|Bcdf gfga|bgaf gedB|AAAB cdBA||

